public/svg/dirWithHeart.svg

<svg width="81" height="80" viewBox="0 0 81 80" fill="none" xmlns="http://www.w3.org/2000/svg">
<rect x="0.5" width="80" height="80" rx="40" fill="#F4F7FF"/>
<path opacity="0.3" fill-rule="evenodd" clip-rule="evenodd" d="M23.833 53.5003C23.833 54.3288 24.5046 55.0003 25.333 55.0003H55.6663C56.4948 55.0003 57.1663 54.3288 57.1663 53.5003V33.167C57.1663 32.3386 56.4948 31.667 55.6663 31.667H37.1663L32.6057 27.1063C32.3244 26.825 31.9428 26.667 31.545 26.667H25.333C24.5046 26.667 23.833 27.3386 23.833 28.167V53.5003Z" fill="#1B5BF7"/>
<path opacity="0.3" d="M44.416 37.5C43.0748 37.5 41.5062 39.0205 40.666 40C39.8258 39.0205 38.2573 37.5 36.916 37.5C34.5418 37.5 33.166 39.3518 33.166 41.7087C33.166 45.625 40.666 50 40.666 50C40.666 50 48.166 45.625 48.166 41.875C48.166 39.5181 46.7902 37.5 44.416 37.5Z" fill="#1B5BF7"/>
</svg>

<svg xmlns="http://www.w3.org/2000/svg" width="81" height="80" fill="none" xmlns:v="https://vecta.io/nano"><rect x=".5" width="80" height="80" rx="40" fill="#f4f7ff"/><g fill="#1b5bf7"><path opacity=".3" fill-rule="evenodd" d="M23.833 53.5a1.5 1.5 0 0 0 1.5 1.5h30.333a1.5 1.5 0 0 0 1.5-1.5V33.167a1.5 1.5 0 0 0-1.5-1.5h-18.5l-4.561-4.561a1.5 1.5 0 0 0-1.061-.439h-6.212a1.5 1.5 0 0 0-1.5 1.5V53.5z"/><path opacity=".3" d="M44.416 37.5c-1.341 0-2.91 1.52-3.75 2.5-.84-.98-2.409-2.5-3.75-2.5-2.374 0-3.75 1.852-3.75 4.209 0 3.916 7.5 8.291 7.5 8.291s7.5-4.375 7.5-8.125c0-2.357-1.376-4.375-3.75-4.375z"/></g></svg>
